X:247
T:Craig's Pipes
M:4/4
L:1/8
R:Reel
K:G
"G"B3 A BAGA|B2 dB "C"AGEG|"G"B3 A BAGB|"Ami"A BG "C"AGEG|"G"B3A "C"BAGA
|"G"B2 dB "D/F#"AGEG|"Emi"Beed "Bmi"BddB|"Ami"A2 BG "C"AGEG:|
"G"DG G2 DGG2|DGBG "C"AGEG|"G"DGG2 "C"GABc|"D"dBAc "C"BG G2 |
"G"DG G2 DGG2|DGBG "C"AGEG|"G"DGG2 "C"GABc|"D"dBAc "G"BG G2 ||
"G"   d2 Bd efge|"C"d2 BG AGEG|"G/B"d2 Bd efge|"C"a2 bg "D"ageg |
"Emi"d2 Bd efge|"Bmi"d2 BG AGEG|"C"d2 Bd efge|"Dsus4"a2 bg ageg ||
